X: 20389
T: John Doherty's
R: mazurka
M: 3/4
K: Gmajor
Bc|:d^c d2 g2|a2 e2 ag|gf ed ef|ed B2 Bc|
d^c d2 g2|a2 e2 ag|gf ed ef|1 g4 Bc:|2 g3a ba||
|:ag e^c Ac|d^c de fg|ba ^ga =ge|fd A2 ba|
ag e^c Ac|d^c de fg|ba ^ga =ge|1 d2 g2 ba:|2 d2 g2 Bc||
|:d^c d2 g2|a2 e2 ag|gf ed ef|ed B2 Bc|
d^c d2 g2|a2 e2 ag|gf ed ef|1 g4 Bc:|2 g6||
|:G3A B2|c3d e2|=f2 d2 g2|e2 c2 g2|
G3A B2|c3d e2|=f2 d2 g2|1 c6:|2 c3c Bc||

